src/lib/packages/icons/src/assets/filled/chicken-leg.svg

<svg width="24" height="24" viewBox="0 0 24 24" fill="none" xmlns="http://www.w3.org/2000/svg">
<path d="M9.62001 14.75C9.93001 15.06 10.28 15.32 10.65 15.52L8.86 17.3C8.55 17.62 8.48 18.09 8.65 18.51C8.8 18.9 8.83002 19.35 8.67002 19.81C8.49002 20.35 8.03002 20.78 7.48002 20.93C6.27002 21.26 5.17002 20.36 5.17002 19.2C5.17002 18.99 5.01001 18.83 4.81001 18.83C4.02001 18.83 3.35002 18.39 3.10002 17.64C2.69002 16.38 3.61001 15.22 4.81001 15.22C5.06001 15.22 5.30002 15.27 5.51002 15.37C5.92002 15.54 6.38002 15.45 6.70002 15.14L8.48002 13.36C8.68002 13.73 8.94001 14.07 9.25001 14.38L9.62001 14.75ZM19.47 4.53C18.42 3.49 17.1 3 15.79 3C13.66 3 11.57 4.28999 10.81 6.57999L9.58 10.25C9.37 10.9 9.39001 11.6 9.62001 12.22C9.76 12.63 9.99001 13 10.31 13.32L10.68 13.69C10.99 14 11.37 14.24 11.77 14.38C12.1 14.51 12.45 14.57 12.8 14.57C13.12 14.57 13.44 14.52 13.75 14.42L17.42 13.19C19.71 12.43 21 10.34 21 8.20999C21 6.89999 20.51 5.58 19.47 4.53Z" fill="currentColor"/>
</svg>

<svg xmlns="http://www.w3.org/2000/svg" width="24" height="24" fill="none"><path fill="currentColor" d="M9.62 14.75c.31.31.66.57 1.03.77L8.86 17.3c-.31.32-.38.79-.21 1.21.15.39.18.84.02 1.3-.18.54-.64.97-1.19 1.12-1.21.33-2.31-.57-2.31-1.73a.36.36 0 0 0-.36-.37c-.79 0-1.46-.44-1.71-1.19-.41-1.26.51-2.42 1.71-2.42.25 0 .49.05.7.15.41.17.87.08 1.19-.23l1.78-1.78c.2.37.46.71.77 1.02l.37.37Zm9.85-10.22A5.189 5.189 0 0 0 15.79 3c-2.13 0-4.22 1.29-4.98 3.58l-1.23 3.67c-.21.65-.19 1.35.04 1.97.14.41.37.78.69 1.1l.37.37c.31.31.69.55 1.09.69.33.13.68.19 1.03.19.32 0 .64-.05.95-.15l3.67-1.23c2.29-.76 3.58-2.85 3.58-4.98 0-1.31-.49-2.63-1.53-3.68Z"/></svg>
